X:4628
T:Niall Keegan's
O:england
M:4/4
L:1/8
C:Niall Keegan
R:Reel
K:Am
B|:cA~A2 BAGB|~A3G E^DEG|F2{G}FG AB{c}BA|~G3A BcdB|
cA~A2 BAGB|Ae{g}ee gaed|c2Ac BAGB|AcBG A3B:|
cg~g2 egdc|~B3d edcB|AGFG E2{G}EG|FGAc dcBG|
Ae{g}ee BddB|c2Ac BAGB|~A3c BAGB|AcBG A3B:|


